icons/desktop/16/email-mask-16.svg

<svg width="16" height="16" viewBox="0 0 16 16" fill="none" xmlns="http://www.w3.org/2000/svg">
<path fill-rule="evenodd" clip-rule="evenodd" d="M12.3291 9.20322C12.8461 8.16685 13.2459 7.92204 13.6992 8.01572C14.0976 8.09788 14.3389 8.81327 14.4707 9.1251C14.727 9.73111 14.9439 10.3389 15.0684 10.9815C15.1543 11.4249 15.3837 11.7511 15.834 11.7511L15.8369 11.753C15.9509 11.7545 16.0292 11.8728 15.9893 11.9796C15.893 12.2371 15.597 12.401 15.3496 12.4962C15.4623 12.5254 15.7943 12.4598 15.8076 12.6251C15.818 12.7612 15.4722 12.8971 15.3789 12.9425C14.5063 13.3626 13.7035 14.1167 12.6709 13.9835C12.222 13.9249 11.8948 13.6084 11.5273 13.4122C11.354 13.32 11.1431 13.32 10.9697 13.4122C10.6023 13.6084 10.275 13.9249 9.82617 13.9835C8.79364 14.1166 7.99073 13.3626 7.11816 12.9425C7.02468 12.8985 6.67858 12.7612 6.69043 12.6251C6.70535 12.4585 7.03612 12.5253 7.14746 12.4962C6.90011 12.401 6.60407 12.2371 6.50781 11.9796C6.46784 11.8728 6.54471 11.7532 6.66016 11.753C7.11202 11.7516 7.34083 11.426 7.42676 10.9825C7.5512 10.3387 7.76723 9.73286 8.02344 9.12705C8.15527 8.81677 8.39651 8.09886 8.79492 8.0167C9.24826 7.92301 9.65045 8.16637 10.166 9.2042C10.5912 10.0575 10.8779 10.6554 10.8779 10.6554V10.6603L11.1699 10.6573L11.1777 10.6563H11.3242L11.6162 10.6593V10.6534C11.62 10.6455 11.9068 10.0523 12.3291 9.20322ZM10.6445 12.5304C10.4342 11.8556 9.56983 11.6008 8.91797 11.7091C8.80813 11.7268 8.50621 11.8338 8.51953 11.9728C8.81287 12.6988 10.046 13.0764 10.6445 12.5304ZM13.5742 11.7091C12.9229 11.601 12.0598 11.8548 11.8486 12.5284C12.447 13.0757 13.6774 12.6984 13.9727 11.9728C13.986 11.8337 13.6839 11.7266 13.5742 11.7091Z" fill="black"/>
<path fill-rule="evenodd" clip-rule="evenodd" d="M2.13867 2.26084C4.66766 1.91584 7.28095 1.91191 9.83594 2.25791C11.0699 2.42591 12.001 3.49333 12.001 4.74033V7.09873C11.703 7.36299 11.4574 7.69439 11.2461 8.05185C11.0369 7.69766 10.7952 7.36853 10.501 7.10556V4.74131C10.501 4.68994 10.4958 4.63946 10.4883 4.58994L7.76172 6.86338C7.25179 7.28817 6.62582 7.50107 6.00098 7.50107C5.37613 7.50107 4.75116 7.28818 4.24023 6.86338L1.51172 4.58896C1.5046 4.63748 1.50098 4.6871 1.50098 4.7374V8.25888C1.501 8.75986 1.87321 9.18798 2.36719 9.25498C3.46305 9.40269 5.12086 9.47938 6.29785 9.49228C6.12477 10.0149 5.95136 10.5911 5.85742 10.9815C4.704 10.9614 3.2478 10.8871 2.16602 10.7403C0.932034 10.5723 0.00100409 9.50488 0.000976562 8.25791V4.73642C0.000978793 3.49252 0.919819 2.42797 2.13867 2.26084ZM6.00098 3.5001C4.92654 3.5001 3.84408 3.56366 2.7793 3.6915L5.20117 5.71006C5.66411 6.09587 6.33684 6.09586 6.80078 5.71006L9.2207 3.69248C8.1519 3.56509 7.07056 3.5001 6.00098 3.5001Z" fill="black"/>
</svg>

<!-- This Source Code Form is subject to the terms of the Mozilla Public
   - License, v. 2.0. If a copy of the MPL was not distributed with this
   - file, You can obtain one at http://mozilla.org/MPL/2.0/. -->
<svg xmlns="http://www.w3.org/2000/svg" width="16" height="16" fill="context-fill" fill-opacity="context-fill-opacity" viewBox="0 0 16 16">
    <path fill-rule="evenodd" d="M12.33 9.203c.516-1.036.916-1.281 1.37-1.187.398.082.639.797.77 1.11.257.605.474 1.213.598 1.856.086.443.316.77.766.77l.003.001c.114.002.192.12.152.227-.096.257-.392.421-.64.516.113.03.445-.036.459.13.01.135-.336.271-.43.317-.872.42-1.674 1.174-2.707 1.04-.449-.058-.776-.375-1.144-.57a.6.6 0 0 0-.557 0c-.368.195-.695.512-1.144.57-1.032.134-1.835-.62-2.708-1.04-.093-.044-.44-.182-.428-.318.015-.166.346-.1.457-.129-.247-.095-.543-.259-.64-.516-.04-.107.038-.227.153-.227.452-.001.68-.327.767-.77.124-.644.34-1.25.596-1.856.132-.31.374-1.028.772-1.11.453-.094.855.15 1.371 1.187.425.853.712 1.451.712 1.451v.005l.292-.003h.154l.292.002v-.006c.004-.008.29-.6.713-1.45m-1.685 3.327c-.21-.674-1.075-.93-1.727-.82-.11.017-.412.124-.398.263.293.726 1.526 1.103 2.125.557m2.93-.82c-.652-.109-1.515.145-1.726.818.598.548 1.828.17 2.124-.555.013-.14-.29-.246-.399-.264" clip-rule="evenodd" />
    <path fill-rule="evenodd" d="M2.139 2.26a28.7 28.7 0 0 1 7.697-.002A2.514 2.514 0 0 1 12 4.74V7.1a4 4 0 0 0-.755.953 4 4 0 0 0-.745-.946V4.74a1 1 0 0 0-.013-.151L7.762 6.863a2.75 2.75 0 0 1-3.522 0L1.512 4.59q-.01.072-.011.148V8.26c0 .5.372.929.866.996 1.096.148 2.754.224 3.93.237a21 21 0 0 0-.44 1.49c-1.153-.02-2.61-.095-3.691-.242A2.514 2.514 0 0 1 .001 8.258V4.736c0-1.243.919-2.308 2.138-2.475M6 3.5a27 27 0 0 0-3.222.192L5.201 5.71a1.25 1.25 0 0 0 1.6 0l2.42-2.018A27 27 0 0 0 6 3.5" clip-rule="evenodd" />
</svg>
